icons/svg/sort.svg

﻿<?xml version="1.0" encoding="utf-8"?>
<!DOCTYPE svg PUBLIC "-//W3C//DTD SVG 1.1//EN" "http://www.w3.org/Graphics/SVG/1.1/DTD/svg11.dtd">
<svg xmlns="http://www.w3.org/2000/svg" xmlns:xlink="http://www.w3.org/1999/xlink" version="1.1" baseProfile="full" width="24" height="24" viewBox="0 0 24.00 24.00" enable-background="new 0 0 24.00 24.00" xml:space="preserve">
	<path fill="#000000" fill-opacity="1" stroke-width="0.2" stroke-linejoin="round" d="M 10,13L 10,11L 18,11L 18,13L 10,13 Z M 10,19L 10,17L 14,17L 14,19L 10,19 Z M 10.0006,7.002L 10,5L 22,5L 22.0006,7.002L 10.0006,7.002 Z M 6.00001,17L 8.50001,17L 5.00001,20.5L 1.50001,17L 4.00001,17L 4,7L 1.5,7L 5,3.5L 8.5,7L 6,7L 6.00001,17 Z "/>
</svg>

<svg xmlns="http://www.w3.org/2000/svg" version="1.1" baseProfile="full" width="24" height="24" viewBox="0 0 24.00 24.00" xml:space="preserve"><path fill="#000" fill-opacity="1" stroke-width=".2" stroke-linejoin="round" d="M10 13v-2h8v2h-8zm0 6v-2h4v2h-4zm0-11.998V5h12v2.002H10zM6 17h2.5L5 20.5 1.5 17H4V7H1.5L5 3.5 8.5 7H6v10z"/></svg>
